!!!OTL: WANN ZU MEIM SCHAETZEL KOMMST
!!!ARE: Europa, Mitteleuropa, Deutschland, Bayern, Regensburg
!!!SCT: E0510A
!!!YEM: Copyright 1995, estate of Helmut Schaffrath.
**kern
*ICvox
*Ivox
*M3/8
*k[f#]
*G:
=1
{8.g
16f#
8g
=2
16a
16g
16f#
16e
8d}
=3
{8.d
16a
8a
=4
16a
16b
8g
8r}
=5
{8.g
16f#
8g
=6
16a
16g
16f#
16e
8d}
=7
{8.d
16a
8a
=8
16a
16b
8g
8r}
=9
{8.a
16b
8a
=10
8.a
16b
8a}
=11
{8.a
16b
8a
=12
8.a
16b
8a}
=13
{8g
8f#
8e
=14
8d
4dd}
=15
{8dd
16cc
16b
8a
=16
16a
16b
8g
8r}
==
!!!AGN: Liebes - Lied
!!!ONB: ESAC (Essen Associative Code) Database: ERK1
!!!AMT: simple triple
!!!AIN: vox
!!!EED: Helmut Schaffrath
!!!EEV: 1.0
*-
